!!!OTL: To God be the Glory
!!!COL:
**kern	**text	**text	**text
*clefG2	*	*	*
*k[f#]	*	*	*
*M3/4	*	*	*
*G:	*	*	*
=	=	=	=
4d	To	O	Great
=	=	=	=
2d	God	per-	things
8Le	be	fect	he
8Jf#	the	re-	has
=	=	=	=
4g	glo-	demp-	taught
4d	ry,	tion,	us,
4g	great	the	great
=	=	=	=
4a	things	pur-	things
4d	he	chase	he
4a	has	of	has
=	=	=	=
2b;	done;	blood,	done;
4b	so	to	and
=	=	=	=
4cc	loved	ev-	great
4e	he	ery	our
4cc	the	be-	re-
=	=	=	=
4b	world	liev-	joic-
4g	that	er	ing
4b	he	the	through
=	=	=	=
4b	gave	prom-	Je-
4a	us	ise	sus
4e	his	of	the
=	=	=	=
2a;	Son,	God;	Son;
4d	who	the	but
=	=	=	=
2d	yield-	vil-	pur-
8Le	ed	est	er
8Jf#	his	of-	and
=	=	=	=
4g	life	fend-	high-
4d	an	er	er
4g	a-	who	and
=	=	=	=
4a	ton-	tru-	great-
4d	ment	ly	er
4a	for	be-	will
=	=	=	=
2b;	sin,	lieves,	be
4b	and	that	our
=	=	=	=
4dd	o-	mo-	won-
4cc	pened	ment	der,
4a	the	from	our
=	=	=	=
4g	life-	Je-	glad-
4f#	gate	sus	ness,
4g	that	a	when
=	=	=	=
4b	we	par-	Je-
4b	may	don	sus
4a	go	re-	we
=	=	=	=
2g;	in.	cieves.	see.
8.Lb	Praise	Praise	Praise
16Jcc	the	the	the
=	=	=	=
2dd	Lord,	Lord,	Lord,
8.Lb	praise	praise	praise
16Jcc	the	the	the
=	=	=	=
2dd	Lord;	Lord;	Lord;
8.Ldd	let	let	let
16Jb	the	the	the
=	=	=	=
4g	earth	earth	earth
4a	hear	hear	hear
4b	his	his	his
=	=	=	=
2a;	voice!	voice!	voice!
8.La	Praise	Praise	Praise
16Jb	the	the	the
=	=	=	=
2cc	Lord,	Lord,	Lord,
8.La	praise	praise	praise
16Jb	the	the	the
=	=	=	=
2cc	Lord;	Lord;	Lord;
8Lcc	let	let	let
8Ja	the	the	the
=	=	=	=
4dd	peo-	peo-	peo-
4dd	ple	ple	ple
4cc	re-	re-	re-
=	=	=	=
2b;	joice!	joice!	joice!
4d	O	O	O
=	=	=	=
2d	come	come	come
8Le	to	to	to
8Jf#	the	the	the
=	=	=	=
4g	Fa-	Fa-	Fa-
4d	ther	ther	ther
4g	through	through	through
=	=	=	=
4a	Je-	Je-	Je-
4d	sus	sus	sus
4a	the	the	the
=	=	=	=
2b;	Son,	Son,	Son,
4b	and	and	and
=	=	=	=
4dd	give	give	give
4cc	him	him	him
4a	the	the	the
=	=	=	=
4g	glo-	glo-	glo-
4f#	ry;	ry;	ry;
4g	great	great	great
=	=	=	=
4b	things	things	things
4b	he	he	he
4a	has	has	has
=	=	=	=
2g;	done.	done.	done.
==	==	==	==
*-	*-	*-	*-
